; HEADER_BLOCK_START
; generated by OrcaSlicer 1.8.0-beta1 on 2024-12-03 at 16:22:31
; total layer number: 47
; HEADER_BLOCK_END


;
;
; external perimeters extrusion width = 0.40mm
; perimeters extrusion width = 0.45mm
; infill extrusion width = 0.45mm
; solid infill extrusion width = 0.40mm
; top infill extrusion width = 0.40mm
; support material extrusion width = 0.40mm
; first layer extrusion width = 0.48mm

; EXECUTABLE_BLOCK_START
EXCLUDE_OBJECT_DEFINE NAME=BatteryHolder.STL_id_0_copy_0 CENTER=160,160 POLYGON=[[68.7,147.5],[251.3,147.5],[251.3,172.5],[68.7,172.5],[68.7,147.5]]
M73 P0 R31
;TYPE:Custom
M190 S60
M109 S215
PRINT_START EXTRUDER=215 BED=60
G90
G21
M83 ; use relative distances for extrusion
; filament start gcode
M106 S0
;LAYER_CHANGE
;Z:0.218
;HEIGHT:0.218
;BEFORE_LAYER_CHANGE
;0.218
G92 E0

G1 E-.4 F1800
;AFTER_LAYER_CHANGE
;0.218
;_SET_FAN_SPEED_CHANGING_LAYER
SET_VELOCITY_LIMIT ACCEL=500 ACCEL_TO_DECEL=250
G1 Z.4 F16200
G1 X62.142 Y135.033
G1 Z.4
G1 Z.218
G1 E.4 F1800
;TYPE:Skirt
;WIDTH:0.48
G1 F3000
G1 X63.577 Y134.373 E.06079
G1 X65.478 Y133.79 E.07653
G1 X67.107 Y133.501 E.06365
G1 X68.7 Y133.402 E.06142
G1 X251.712 Y133.414 E7.04208
G1 X253.528 Y133.596 E.07021
G1 X254.677 Y133.835 E.04517
G1 X255.797 Y134.156 E.04483
G1 X257.335 Y134.769 E.06371
G1 X259.48 Y136.026 E.09565
G1 X261.309 Y137.588 E.09256
G1 X262.825 Y139.406 E.09109
G1 X263.32 Y140.151 E.03443
G1 X264.102 Y141.611 E.06371
G1 X264.732 Y143.255 E.06777
G1 X265.01 Y144.278 E.04078
G1 X265.366 Y146.611 E.09079
G1 X265.398 Y172.5 E.9962
G1 X265.336 Y173.743 E.04788
G1 X264.965 Y175.877 E.08335
G1 X264.383 Y177.713 E.0741
G1 X263.654 Y179.277 E.06641
G1 X262.774 Y180.68 E.06371
G1 X261.163 Y182.555 E.09515
G1 X259.338 Y184.067 E.09119
G1 X257.927 Y184.935 E.06371
G1 X256.423 Y185.627 E.06371
G1 X254.522 Y186.21 E.07652
G1 X252.893 Y186.499 E.06365
G1 X251.3 Y186.598 E.06142
G1 X68.288 Y186.586 E7.04209
G1 X66.472 Y186.404 E.07021
G1 X65.323 Y186.165 E.04517
G1 X63.421 Y185.559 E.07681
G1 X61.923 Y184.854 E.06371
G1 X59.864 Y183.475 E.09535
G1 X58.223 Y181.912 E.0872
G1 X56.68 Y179.849 E.09914
G1 X55.573 Y177.623 E.09565
G1 X54.99 Y175.722 E.07652
G1 X54.701 Y174.093 E.06365
G1 X54.602 Y172.5 E.06142
G1 X54.602 Y147.5 E.96197
G1 X54.664 Y146.257 E.04788
G1 X55.035 Y144.123 E.08335
G1 X55.617 Y142.287 E.0741
G1 X56.346 Y140.723 E.06641
G1 X57.226 Y139.32 E.06371
G1 X58.837 Y137.445 E.09515
G1 X60.662 Y135.933 E.09119
G1 X62.073 Y135.065 E.06371
G1 X62.105 Y135.05 E.00139
G1 X62.288 Y135.441 F16200
G1 F3000
G1 X63.746 Y134.772 E.06171
G1 X65.592 Y134.208 E.07428
G1 X67.17 Y133.929 E.06166
G1 X68.7 Y133.835 E.05899
G1 X251.686 Y133.847 E7.04108
G1 X253.44 Y134.02 E.0678
G1 X254.589 Y134.259 E.04517
G1 X256.43 Y134.848 E.07439
G1 X258.547 Y135.923 E.09135
G1 X259.854 Y136.853 E.06171
G1 X260.993 Y137.883 E.05909
G1 X262.481 Y139.669 E.08944
G1 X262.945 Y140.367 E.03225
G1 X263.703 Y141.78 E.06171
G1 X264.314 Y143.369 E.06551
G1 X264.592 Y144.392 E.04078
G1 X264.933 Y146.629 E.08709
G1 X264.965 Y172.5 E.99548
G1 X264.903 Y173.717 E.04688
G1 X264.541 Y175.789 E.08094
G1 X263.975 Y177.568 E.07186
G1 X263.268 Y179.081 E.06424
G1 X262.414 Y180.439 E.06171
G1 X260.87 Y182.236 E.09117
G1 X259.079 Y183.72 E.08953
G1 X257.712 Y184.559 E.06171
G1 X256.254 Y185.228 E.06171
G1 X254.408 Y185.792 E.07427
G1 X252.83 Y186.071 E.06165
G1 X251.3 Y186.165 E.05899
G1 X68.314 Y186.153 E7.04109
M73 P1 R31
G1 X66.56 Y185.98 E.0678
G1 X65.411 Y185.741 E.04517
G1 X63.57 Y185.152 E.07439
G1 X62.119 Y184.468 E.06171
G1 X60.146 Y183.147 E.09135
G1 X58.54 Y181.616 E.08538
G1 X57.055 Y179.633 E.09532
G1 X55.972 Y177.454 E.09365
G1 X55.408 Y175.608 E.07427
G1 X55.129 Y174.03 E.06165
G1 X55.035 Y172.5 E.05899
G1 X55.035 Y147.5 E.96197
G1 X55.097 Y146.283 E.04688
G1 X55.459 Y144.211 E.08094
G1 X56.025 Y142.432 E.07186
G1 X56.732 Y140.919 E.06424
G1 X57.586 Y139.561 E.06171
G1 X59.13 Y137.764 E.09117
G1 X60.921 Y136.28 E.08953
G1 X62.254 Y135.462 E.06017
; printing object BatteryHolder.STL id:0 copy 0
G1 E-.28 F1800
;WIPE_START
G1 F3000
G1 X63.162 Y135.042 E-.12
;WIPE_END
EXCLUDE_OBJECT_START NAME=BatteryHolder.STL_id_0_copy_0
G1 Z.618 F16200
G1 X65.567 Y141.226 Z.618
G1 Z.218
G1 E.4 F1800
;TYPE:Brim
G1 F3000
G1 X65.59 Y141.213 E.00104
G1 X66.331 Y140.899 E.03095
G1 X67.327 Y140.628 E.03972
G1 X68.126 Y140.51 E.03109
G1 X68.705 Y140.485 E.0223
G1 X251.293 Y140.485 E7.02579
G1 X252.102 Y140.534 E.03117
G1 X253.376 Y140.812 E.05018
G1 X254.14 Y141.09 E.03127
G1 X254.858 Y141.455 E.03102
G1 X255.528 Y141.904 E.03102
G1 X256.14 Y142.43 E.03106
G1 X256.592 Y142.914 E.02548
G1 X257.186 Y143.692 E.03765
G1 X257.587 Y144.39 E.03098
G1 X257.901 Y145.131 E.03095
G1 X258.172 Y146.126 E.03971
G1 X258.29 Y146.926 E.03109
G1 X258.315 Y147.505 E.02229
G1 X258.315 Y172.493 E.96154
G1 X258.266 Y173.302 E.03117
G1 X258.034 Y174.422 E.044
G1 X257.709 Y175.341 E.0375
G1 X257.344 Y176.058 E.03098
G1 X256.896 Y176.728 E.03102
G1 X256.37 Y177.339 E.03102
G1 X255.756 Y177.902 E.03203
G1 X255.109 Y178.385 E.0311
G1 X254.41 Y178.787 E.03102
G1 X253.669 Y179.101 E.03095
G1 X252.674 Y179.372 E.03971
G1 X251.874 Y179.49 E.03109
G1 X251.295 Y179.515 E.02229
G1 X68.707 Y179.515 E7.0258
G1 X67.898 Y179.466 E.03117
G1 X66.624 Y179.188 E.05018
G1 X65.86 Y178.91 E.03127
G1 X65.142 Y178.545 E.03102
G1 X64.472 Y178.096 E.03102
G1 X63.86 Y177.57 E.03106
G1 X63.408 Y177.086 E.02548
G1 X62.814 Y176.308 E.03765
G1 X62.413 Y175.61 E.03098
G1 X62.099 Y174.869 E.03095
G1 X61.828 Y173.874 E.03971
G1 X61.71 Y173.074 E.03109
G1 X61.685 Y172.495 E.02229
G1 X61.685 Y147.507 E.96154
G1 X61.734 Y146.698 E.03117
G1 X61.966 Y145.578 E.044
G1 X62.291 Y144.659 E.0375
G1 X62.656 Y143.942 E.03098
G1 X63.104 Y143.272 E.03102
G1 X63.63 Y142.661 E.03102
G1 X64.244 Y142.098 E.03203
G1 X64.891 Y141.615 E.0311
G1 X65.532 Y141.246 E.02844
G1 X65.748 Y141.622 F16200
G1 F3000
G1 X65.777 Y141.605 E.00125
G1 X66.481 Y141.307 E.02945
G1 X67.423 Y141.051 E.03755
G1 X68.16 Y140.943 E.02867
G1 X68.717 Y140.918 E.02145
G1 X251.284 Y140.919 E7.02497
G1 X252.052 Y140.966 E.0296
G1 X253.247 Y141.227 E.04704
G1 X253.959 Y141.486 E.02918
G1 X254.632 Y141.826 E.02901
G1 X255.259 Y142.245 E.02901
G1 X255.845 Y142.749 E.02972
G1 X256.265 Y143.199 E.02372
G1 X256.819 Y143.926 E.03516
G1 X257.201 Y144.591 E.02951
G1 X257.493 Y145.281 E.02886
G1 X257.746 Y146.208 E.03694
G1 X257.857 Y146.96 E.02927
G1 X257.882 Y147.511 E.02122
G1 X257.882 Y172.477 E.96064
G1 X257.834 Y173.254 E.02996
G1 X257.617 Y174.296 E.04097
G1 X257.306 Y175.177 E.03595
G1 X256.966 Y175.845 E.02886
G1 X256.555 Y176.459 E.02841
G1 X256.064 Y177.032 E.02902
G1 X255.485 Y177.563 E.03025
G1 X254.877 Y178.018 E.02922
G1 X254.223 Y178.395 E.02901
G1 X253.519 Y178.693 E.02945
G1 X252.577 Y178.949 E.03754
G1 X251.84 Y179.057 E.02867
G1 X251.283 Y179.082 E.02144
G1 X68.723 Y179.082 E7.02469
M73 P2 R30
G1 X67.948 Y179.034 E.0299
G1 X66.737 Y178.768 E.04771
G1 X66.041 Y178.514 E.0285
G1 X65.368 Y178.174 E.02901
G1 X64.729 Y177.745 E.02961
G1 X64.166 Y177.261 E.02857
G1 X63.743 Y176.81 E.02377
G1 X63.171 Y176.06 E.0363
G1 X62.806 Y175.423 E.02826
G1 X62.512 Y174.735 E.02878
G1 X62.251 Y173.777 E.03821
G1 X62.143 Y173.04 E.02867
G1 X62.118 Y172.483 E.02144
G1 X62.118 Y147.523 E.96043
G1 X62.166 Y146.746 E.02996
G1 X62.383 Y145.704 E.04097
G1 X62.694 Y144.823 E.03595
G1 X63.034 Y144.155 E.02886
G1 X63.445 Y143.541 E.02841
G1 X63.936 Y142.968 E.02902
G1 X64.515 Y142.437 E.03025
G1 X65.123 Y141.982 E.02922
G1 X65.714 Y141.642 E.02622
G1 X65.931 Y142.017 F16200
G1 F3000
G1 X65.963 Y141.998 E.00145
G1 X66.632 Y141.715 E.02794
G1 X67.519 Y141.475 E.03537
G1 X68.195 Y141.376 E.02628
G1 X68.729 Y141.352 E.02059
G1 X251.267 Y141.352 E7.02383
G1 X252.002 Y141.399 E.02834
G1 X253.117 Y141.642 E.04393
G1 X253.78 Y141.882 E.02709
G1 X254.406 Y142.198 E.027
G1 X254.99 Y142.586 E.02699
G1 X255.549 Y143.067 E.02836
G1 X255.937 Y143.484 E.02194
G1 X256.453 Y144.159 E.03268
G1 X256.816 Y144.791 E.02803
G1 X257.085 Y145.432 E.02675
G1 X257.319 Y146.289 E.0342
G1 X257.424 Y146.995 E.02746
G1 X257.448 Y147.518 E.02014
G1 X257.448 Y172.459 E.95972
G1 X257.401 Y173.205 E.02876
G1 X257.201 Y174.171 E.03795
G1 X256.903 Y175.014 E.03439
G1 X256.595 Y175.619 E.02614
G1 X256.214 Y176.19 E.02643
G1 X255.757 Y176.724 E.02703
G1 X255.212 Y177.225 E.02847
G1 X254.644 Y177.651 E.02734
G1 X254.037 Y178.002 E.02699
G1 X253.368 Y178.285 E.02794
G1 X252.481 Y178.525 E.03536
G1 X251.805 Y178.624 E.02628
G1 X251.271 Y178.648 E.02059
G1 X68.741 Y178.648 E7.02354
G1 X67.998 Y178.601 E.02864
G1 X66.85 Y178.348 E.04525
G1 X66.206 Y178.112 E.02636
G1 X65.594 Y177.803 E.0264
G1 X64.985 Y177.395 E.0282
G1 X64.471 Y176.953 E.0261
G1 X64.079 Y176.535 E.02204
G1 X63.529 Y175.813 E.03495
G1 X63.191 Y175.223 E.02615
G1 X62.926 Y174.601 E.02601
G1 X62.675 Y173.681 E.03671
G1 X62.576 Y173.005 E.02626
G1 X62.552 Y172.471 E.02059
G1 X62.552 Y147.541 E.95928
G1 X62.599 Y146.795 E.02876
G1 X62.799 Y145.829 E.03795
G1 X63.097 Y144.986 E.03439
G1 X63.405 Y144.381 E.02614
G1 X63.786 Y143.81 E.02643
G1 X64.243 Y143.276 E.02703
G1 X64.788 Y142.775 E.02847
G1 X65.356 Y142.349 E.02734
G1 X65.896 Y142.037 E.024
G1 X66.113 Y142.412 F16200
G1 F3000
G1 X66.15 Y142.39 E.00163
G1 X66.782 Y142.123 E.02642
G1 X67.615 Y141.899 E.03319
G1 X68.23 Y141.808 E.0239
G1 X68.742 Y141.785 E.01974
G1 X251.249 Y141.785 E7.02265
G1 X251.951 Y141.831 E.02708
G1 X252.989 Y142.058 E.04086
G1 X253.6 Y142.277 E.02501
G1 X254.181 Y142.569 E.02499
G1 X254.721 Y142.928 E.02496
G1 X255.253 Y143.385 E.02699
G1 X255.61 Y143.769 E.02016
G1 X256.086 Y144.393 E.03022
G1 X256.43 Y144.991 E.02654
G1 X256.677 Y145.581 E.02463
G1 X256.892 Y146.371 E.03149
G1 X256.992 Y147.03 E.02565
G1 X257.015 Y147.525 E.01905
G1 X257.015 Y172.442 E.95877
G1 X256.969 Y173.156 E.02756
G1 X256.784 Y174.046 E.03495
G1 X256.5 Y174.85 E.03282
G1 X256.216 Y175.406 E.02402
G1 X255.872 Y175.922 E.02386
G1 X255.45 Y176.417 E.02504
G1 X254.94 Y176.887 E.02668
G1 X254.411 Y177.284 E.02545
G1 X253.85 Y177.61 E.02495
G1 X253.218 Y177.877 E.02642
G1 X252.385 Y178.101 E.03319
G1 X251.77 Y178.192 E.0239
G1 X251.258 Y178.215 E.01973
G1 X68.759 Y178.215 E7.02237
M73 P3 R30
G1 X68.049 Y178.169 E.02736
G1 X66.963 Y177.928 E.0428
G1 X66.373 Y177.711 E.02421
G1 X65.82 Y177.431 E.02381
G1 X65.242 Y177.044 E.02678
G1 X64.776 Y176.644 E.02363
G1 X64.415 Y176.26 E.0203
G1 X63.886 Y175.565 E.03358
G1 X63.583 Y175.036 E.02346
G1 X63.34 Y174.467 E.02384
G1 X63.099 Y173.584 E.0352
G1 X63.008 Y172.97 E.02386
G1 X62.985 Y172.458 E.01973
G1 X62.985 Y147.558 E.95811
G1 X63.031 Y146.844 E.02756
G1 X63.216 Y145.954 E.03495
G1 X63.5 Y145.15 E.03282
G1 X63.784 Y144.594 E.02402
G1 X64.128 Y144.078 E.02386
G1 X64.55 Y143.583 E.02504
G1 X65.06 Y143.113 E.02668
G1 X65.589 Y142.716 E.02545
G1 X66.079 Y142.432 E.02179
G1 X66.297 Y142.806 F16200
G1 F3000
G1 X66.337 Y142.783 E.00178
G1 X66.932 Y142.531 E.02488
G1 X67.711 Y142.323 E.03102
G1 X68.265 Y142.241 E.02155
G1 X68.755 Y142.218 E.01888
G1 X251.23 Y142.218 E7.02144
G1 X251.9 Y142.263 E.02582
G1 X252.861 Y142.473 E.03783
G1 X253.422 Y142.674 E.02293
G1 X253.956 Y142.941 E.02298
G1 X254.453 Y143.27 E.02292
G1 X254.957 Y143.703 E.0256
G1 X255.282 Y144.053 E.01837
G1 X255.719 Y144.627 E.02777
G1 X256.044 Y145.191 E.02504
G1 X256.269 Y145.731 E.0225
G1 X256.466 Y146.453 E.02882
G1 X256.559 Y147.066 E.02386
G1 X256.581 Y147.532 E.01794
G1 X256.582 Y172.423 E.95779
G1 X256.537 Y173.107 E.02636
G1 X256.368 Y173.92 E.03197
G1 X256.097 Y174.686 E.03125
G1 X255.838 Y175.193 E.02189
G1 X255.53 Y175.654 E.02133
G1 X255.142 Y176.11 E.02305
G1 X254.667 Y176.549 E.02489
G1 X254.178 Y176.918 E.02358
G1 X253.663 Y177.217 E.0229
G1 X253.068 Y177.469 E.02488
G1 X252.289 Y177.677 E.03101
G1 X251.735 Y177.759 E.02155
G1 X251.245 Y177.782 E.01888
G1 X68.777 Y177.782 E7.02116
G1 X68.101 Y177.737 E.02609
G1 X67.077 Y177.509 E.04035
G1 X66.553 Y177.316 E.02149
G1 X66.047 Y177.06 E.02182
G1 X65.499 Y176.694 E.02536
G1 X65.081 Y176.335 E.02119
G1 X64.751 Y175.984 E.01854
G1 X64.244 Y175.318 E.03221
G1 X63.969 Y174.836 E.02137
G1 X63.753 Y174.332 E.02109
G1 X63.522 Y173.487 E.03369
G1 X63.441 Y172.935 E.02147
G1 X63.418 Y172.445 E.01888
G1 X63.418 Y147.577 E.95692
G1 X63.461 Y146.911 E.02566
G1 X63.632 Y146.08 E.03267
G1 X63.903 Y145.314 E.03125
G1 X64.162 Y144.807 E.02189
G1 X64.47 Y144.346 E.02133
G1 X64.858 Y143.89 E.02305
G1 X65.333 Y143.451 E.02489
G1 X65.822 Y143.082 E.02358
G1 X66.262 Y142.826 E.01958
G1 X66.481 Y143.2 F16200
G1 F3000
G1 X66.524 Y143.175 E.00192
G1 X67.082 Y142.939 E.02332
G1 X67.806 Y142.746 E.02884
G1 X68.3 Y142.674 E.01922
G1 X68.768 Y142.651 E.01803
G1 X251.212 Y142.651 E7.0202
G1 X251.848 Y142.696 E.02456
G1 X252.733 Y142.889 E.03484
G1 X253.244 Y143.07 E.02087
G1 X253.732 Y143.313 E.02097
G1 X254.184 Y143.611 E.02086
G1 X254.661 Y144.021 E.02419
G1 X254.953 Y144.337 E.01656
G1 X255.353 Y144.861 E.02533
G1 X255.658 Y145.391 E.02353
G1 X255.86 Y145.88 E.02036
G1 X256.039 Y146.536 E.02618
G1 X256.126 Y147.103 E.02207
G1 X256.148 Y147.539 E.01681
G1 X256.149 Y172.405 E.9568
G1 X256.107 Y173.039 E.02447
G1 X255.951 Y173.795 E.0297
G1 X255.695 Y174.522 E.02967
G1 X255.467 Y174.966 E.01919
G1 X255.188 Y175.386 E.0194
G1 X254.834 Y175.804 E.02107
G1 X254.394 Y176.212 E.02309
G1 X253.944 Y176.552 E.0217
G1 X253.476 Y176.825 E.02083
G1 X252.918 Y177.061 E.02332
G1 X252.194 Y177.254 E.02883
G1 X251.7 Y177.326 E.01922
G1 X251.232 Y177.349 E.01803
G1 X68.796 Y177.349 E7.01992
G1 X68.153 Y177.304 E.0248
G1 X67.191 Y177.089 E.03792
G1 X66.719 Y176.914 E.01937
G1 X66.273 Y176.689 E.01924
G1 X65.756 Y176.343 E.02394
G1 X65.386 Y176.025 E.01875
M73 P4 R30
G1 X65.086 Y175.709 E.01678
G1 X64.602 Y175.071 E.03081
G1 X64.361 Y174.649 E.0187
G1 X64.167 Y174.197 E.01893
G1 X63.946 Y173.391 E.03218
G1 X63.874 Y172.9 E.01908
G1 X63.851 Y172.432 E.01803
G1 X63.851 Y147.595 E.95571
G1 X63.891 Y146.978 E.02377
G1 X64.049 Y146.205 E.03038
G1 X64.305 Y145.478 E.02967
G1 X64.533 Y145.034 E.01919
G1 X64.812 Y144.614 E.0194
G1 X65.166 Y144.196 E.02107
G1 X65.606 Y143.788 E.02309
G1 X66.056 Y143.448 E.0217
G1 X66.446 Y143.221 E.01737
G1 X66.665 Y143.594 F16200
G1 F3000
G1 X66.711 Y143.568 E.00202
G1 X67.231 Y143.348 E.02175
G1 X67.901 Y143.17 E.02665
G1 X68.336 Y143.106 E.01692
G1 X68.782 Y143.084 E.01718
G1 X251.192 Y143.085 E7.01893
G1 X251.796 Y143.128 E.0233
G1 X252.606 Y143.304 E.03189
G1 X253.067 Y143.467 E.01881
G1 X253.508 Y143.686 E.01895
G1 X253.916 Y143.954 E.01878
G1 X254.365 Y144.339 E.02277
G1 X254.625 Y144.621 E.01475
G1 X254.986 Y145.094 E.02291
G1 X255.272 Y145.59 E.02201
G1 X255.452 Y146.028 E.01821
G1 X255.613 Y146.619 E.02358
G1 X255.694 Y147.14 E.02029
G1 X255.715 Y147.547 E.01567
G1 X255.716 Y172.386 E.9558
G1 X255.677 Y172.972 E.02259
G1 X255.535 Y173.67 E.02741
G1 X255.292 Y174.358 E.02809
G1 X255.089 Y174.753 E.01706
G1 X254.845 Y175.119 E.01691
G1 X254.525 Y175.498 E.0191
G1 X254.11 Y175.883 E.0218
G1 X253.709 Y176.186 E.01932
G1 X253.289 Y176.432 E.01874
G1 X252.769 Y176.652 E.02175
G1 X252.099 Y176.83 E.02665
G1 X251.664 Y176.894 E.01692
G1 X251.218 Y176.916 E.01717
G1 X68.815 Y176.916 E7.01866
G1 X68.206 Y176.872 E.02351
G1 X67.306 Y176.67 E.03549
G1 X66.899 Y176.519 E.0167
G1 X66.499 Y176.318 E.01725
G1 X66.012 Y175.993 E.02252
G1 X65.69 Y175.716 E.01634
G1 X65.422 Y175.433 E.015
G1 X64.96 Y174.824 E.02941
G1 X64.747 Y174.449 E.01662
G1 X64.58 Y174.062 E.0162
G1 X64.37 Y173.294 E.03065
G1 X64.305 Y172.852 E.01719
G1 X64.284 Y172.418 E.01668
G1 X64.284 Y147.613 E.9545
G1 X64.32 Y147.044 E.0219
G1 X64.465 Y146.329 E.02808
G1 X64.708 Y145.641 E.02807
G1 X64.911 Y145.247 E.01706
G1 X65.155 Y144.881 E.01691
G1 X65.475 Y144.502 E.0191
G1 X65.89 Y144.117 E.0218
G1 X66.291 Y143.814 E.01932
G1 X66.631 Y143.615 E.01517
G1 X66.851 Y143.988 F16200
G1 F3000
G1 X66.898 Y143.96 E.00211
G1 X67.381 Y143.757 E.02016
G1 X67.996 Y143.594 E.02447
G1 X68.384 Y143.538 E.01512
G1 X68.796 Y143.518 E.01584
G1 X251.172 Y143.518 E7.01763
G1 X251.743 Y143.559 E.02204
G1 X252.479 Y143.72 E.02898
