; HEADER_BLOCK_START
; generated by OrcaSlicer 1.8.0-beta1 on 2024-11-28 at 18:28:04
; total layer number: 2
; HEADER_BLOCK_END


;
;
; external perimeters extrusion width = 0.40mm
; perimeters extrusion width = 0.45mm
; infill extrusion width = 0.45mm
; solid infill extrusion width = 0.40mm
; top infill extrusion width = 0.40mm
; support material extrusion width = 0.40mm
; first layer extrusion width = 0.48mm

; EXECUTABLE_BLOCK_START
EXCLUDE_OBJECT_DEFINE NAME=JetsonOrinNanoFanCover.STL_id_0_copy_0 CENTER=160,160 POLYGON=[[126,140.5],[194,140.5],[194,179.5],[126,179.5],[126,140.5]]
M73 P0 R5
;TYPE:Custom
M190 S60
M109 S215
PRINT_START EXTRUDER=215 BED=60
G90
G21
M83 ; use relative distances for extrusion
; filament start gcode
M106 S0
;LAYER_CHANGE
;Z:0.218
;HEIGHT:0.218
;BEFORE_LAYER_CHANGE
;0.218
G92 E0

G1 E-.4 F1800
;AFTER_LAYER_CHANGE
;0.218
;_SET_FAN_SPEED_CHANGING_LAYER
SET_VELOCITY_LIMIT ACCEL=500 ACCEL_TO_DECEL=250
G1 Z.4 F16200
G1 X116.928 Y129.457
G1 Z.4
G1 Z.218
G1 E.4 F1800
;TYPE:Skirt
;WIDTH:0.48
G1 F3000
G1 X118.949 Y128.075 E.09418
G1 X121.027 Y127.106 E.08825
G1 X123.384 Y126.449 E.09414
G1 X125.612 Y126.213 E.0862
G1 X194.412 Y126.214 E2.64736
M73 P0 R4
G1 X196.089 Y126.368 E.06481
G1 X197.016 Y126.541 E.03625
G1 X199.257 Y127.212 E.09001
M73 P1 R4
G1 X201.479 Y128.325 E.09565
G1 X202.569 Y129.071 E.05083
G1 X203.852 Y130.157 E.06466
G1 X204.495 Y130.801 E.03506
G1 X205.547 Y132.08 E.06371
G1 X206.81 Y134.184 E.09441
G1 X207.661 Y136.307 E.08801
G1 X208.172 Y138.659 E.09263
G1 X208.298 Y140.5 E.07099
G1 X208.298 Y179.5 E1.50067
G1 X208.236 Y180.743 E.04788
G1 X207.959 Y182.516 E.06904
G1 X207.567 Y183.981 E.05836
G1 X206.592 Y186.259 E.09535
G1 X205.739 Y187.642 E.06254
G1 X204.842 Y188.798 E.05628
G1 X203.072 Y190.543 E.09565
G1 X201.051 Y191.925 E.09418
G1 X198.973 Y192.894 E.08825
G1 X196.616 Y193.551 E.09414
G1 X194.388 Y193.787 E.0862
G1 X126 Y193.798 E2.6315
G1 X124.757 Y193.736 E.04788
G1 X122.984 Y193.459 E.06904
G1 X121.519 Y193.067 E.05836
M73 P2 R4
G1 X119.978 Y192.461 E.06371
G1 X118.521 Y191.675 E.06371
G1 X117.431 Y190.929 E.05083
G1 X116.148 Y189.843 E.06466
G1 X114.957 Y188.572 E.06704
G1 X113.575 Y186.551 E.09418
G1 X112.606 Y184.473 E.08825
G1 X112.117 Y182.891 E.06371
G1 X111.757 Y180.671 E.08654
G1 X111.702 Y179.5 E.04511
G1 X111.714 Y140.088 E1.51653
G1 X111.868 Y138.411 E.06481
G1 X112.041 Y137.484 E.03625
G1 X112.433 Y136.019 E.05836
G1 X113.039 Y134.478 E.06371
G1 X113.825 Y133.021 E.06371
G1 X114.571 Y131.931 E.05083
G1 X115.657 Y130.648 E.06466
G1 X116.899 Y129.484 E.0655
G1 X117.188 Y129.835 F16200
G1 F3000
G1 X117.824 Y129.311 E.03172
G1 X119.885 Y128.074 E.09248
G1 X121.922 Y127.256 E.08448
G1 X123.451 Y126.877 E.06058
G1 X125.636 Y126.646 E.08457
G1 X194.386 Y126.647 E2.64542
M73 P3 R4
G1 X196.01 Y126.794 E.06274
G1 X196.936 Y126.967 E.03625
G1 X199.086 Y127.61 E.08635
G1 X201.262 Y128.7 E.09365
G1 X202.315 Y129.421 E.0491
G1 X203.566 Y130.483 E.06313
G1 X204.169 Y131.087 E.03285
G1 X205.189 Y132.324 E.06171
G1 X206.426 Y134.385 E.09248
G1 X207.244 Y136.422 E.08448
G1 X207.744 Y138.726 E.0907
G1 X207.865 Y140.5 E.06842
G1 X207.865 Y179.5 E1.50067
G1 X207.803 Y180.717 E.04688
G1 X207.533 Y182.436 E.06697
G1 X207.151 Y183.859 E.05669
G1 X206.217 Y186.042 E.09135
G1 X205.391 Y187.383 E.06062
G1 X204.52 Y188.508 E.05475
G1 X203.413 Y189.669 E.06171
G1 X202.176 Y190.689 E.06171
G1 X200.115 Y191.926 E.09248
G1 X198.078 Y192.744 E.08448
G1 X196.549 Y193.123 E.06058
G1 X194.364 Y193.354 E.08457
G1 X125.614 Y193.353 E2.64542
M73 P4 R4
G1 X123.99 Y193.206 E.06274
G1 X122.44 Y192.884 E.06092
G1 X120.914 Y192.39 E.06171
G1 X119.458 Y191.717 E.06171
G1 X118.177 Y190.936 E.05772
G1 X117.227 Y190.212 E.04598
G1 X115.831 Y188.913 E.07337
G1 X114.811 Y187.676 E.06171
G1 X113.574 Y185.615 E.09248
G1 X112.756 Y183.578 E.08448
G1 X112.377 Y182.049 E.06058
G1 X112.146 Y179.864 E.08457
G1 X112.147 Y140.114 E1.52953
G1 X112.294 Y138.49 E.06274
G1 X112.616 Y136.94 E.06092
G1 X113.11 Y135.414 E.06171
G1 X113.783 Y133.958 E.06171
G1 X114.564 Y132.677 E.05772
G1 X115.288 Y131.727 E.04598
G1 X116.587 Y130.331 E.07337
G1 X117.157 Y129.86 E.02845
; printing object JetsonOrinNanoFanCover.STL id:0 copy 0
G1 E-.28 F1800
;WIPE_START
G1 F3000
G1 X117.824 Y129.311 E-.10373
G1 X117.94 Y129.241 E-.01627
;WIPE_END
EXCLUDE_OBJECT_START NAME=JetsonOrinNanoFanCover.STL_id_0_copy_0
G1 Z.618 F16200
G1 X121.52 Y134.851 Z.618
G1 Z.218
G1 E.4 F1800
;TYPE:Brim
G1 F3000
G1 X121.58 Y134.798 E.00308
G1 X122.246 Y134.344 E.03104
G1 X122.962 Y133.969 E.03108
G1 X123.71 Y133.661 E.03114
G1 X124.488 Y133.446 E.03104
G1 X125.24 Y133.329 E.02931
G1 X126.006 Y133.285 E.02952
G1 X193.993 Y133.285 E2.61607
M73 P5 R4
G1 X194.804 Y133.334 E.03125
G1 X195.707 Y133.502 E.03532
G1 X196.482 Y133.729 E.0311
G1 X197.224 Y134.046 E.03102
G1 X197.923 Y134.45 E.03109
G1 X198.398 Y134.795 E.02258
G1 X199.172 Y135.474 E.03962
G1 X199.702 Y136.08 E.03097
G1 X200.156 Y136.746 E.03104
G1 X200.531 Y137.462 E.03108
G1 X200.839 Y138.21 E.03114
G1 X201.054 Y138.988 E.03104
G1 X201.171 Y139.74 E.02931
G1 X201.215 Y140.506 E.02952
G1 X201.215 Y179.493 E1.50019
G1 X201.166 Y180.304 E.03125
G1 X200.998 Y181.207 E.03532
G1 X200.771 Y181.982 E.0311
G1 X200.454 Y182.724 E.03102
G1 X200.05 Y183.422 E.03104
G1 X199.568 Y184.07 E.03108
G1 X199.027 Y184.671 E.03114
G1 X198.42 Y185.202 E.03102
G1 X197.754 Y185.656 E.03104
G1 X197.038 Y186.031 E.03108
G1 X196.29 Y186.339 E.03114
G1 X195.512 Y186.554 E.03104
G1 X194.76 Y186.671 E.02931
G1 X193.994 Y186.715 E.02952
G1 X126.007 Y186.715 E2.61607
M73 P6 R4
G1 X125.196 Y186.666 E.03125
G1 X124.293 Y186.498 E.03532
G1 X123.518 Y186.271 E.0311
G1 X122.776 Y185.954 E.03102
G1 X122.077 Y185.55 E.03109
G1 X121.602 Y185.205 E.02258
G1 X120.828 Y184.526 E.03962
G1 X120.298 Y183.92 E.03097
G1 X119.844 Y183.254 E.03104
G1 X119.469 Y182.538 E.03108
G1 X119.161 Y181.79 E.03114
G1 X118.946 Y181.012 E.03104
G1 X118.829 Y180.26 E.02931
G1 X118.785 Y179.494 E.02952
G1 X118.785 Y140.507 E1.50019
G1 X118.834 Y139.696 E.03125
G1 X119.002 Y138.793 E.03532
G1 X119.229 Y138.018 E.0311
G1 X119.546 Y137.276 E.03102
G1 X119.95 Y136.577 E.03109
G1 X120.295 Y136.102 E.02258
G1 X120.974 Y135.328 E.03962
G1 X121.49 Y134.877 E.02635
G1 X121.775 Y135.203 F16200
G1 F3000
G1 X121.84 Y135.147 E.00329
G1 X122.464 Y134.72 E.02908
G1 X123.151 Y134.36 E.02986
G1 X123.858 Y134.07 E.02943
G1 X124.586 Y133.869 E.02906
G1 X125.292 Y133.76 E.02748
G1 X126.022 Y133.718 E.02813
G1 X193.984 Y133.719 E2.61511
G1 X194.759 Y133.766 E.02987
G1 X195.599 Y133.923 E.03289
G1 X196.343 Y134.14 E.02982
G1 X197.036 Y134.438 E.02901
G1 X197.681 Y134.811 E.02866
G1 X198.132 Y135.138 E.02144
G1 X198.858 Y135.775 E.03719
G1 X199.363 Y136.352 E.02948
G1 X199.787 Y136.976 E.02906
G1 X200.135 Y137.64 E.02882
G1 X200.43 Y138.358 E.02989
G1 X200.628 Y139.072 E.02848
G1 X200.741 Y139.792 E.02806
G1 X200.782 Y140.522 E.02813
G1 X200.782 Y179.477 E1.49892
M73 P7 R4
G1 X200.736 Y180.243 E.02955
G1 X200.577 Y181.099 E.03351
G1 X200.365 Y181.828 E.02922
G1 X200.069 Y182.522 E.02901
G1 X199.692 Y183.177 E.02908
G1 X199.228 Y183.799 E.02986
G1 X198.716 Y184.367 E.02943
G1 X198.148 Y184.863 E.02901
G1 X197.536 Y185.28 E.02848
G1 X196.849 Y185.64 E.02986
G1 X196.142 Y185.93 E.02943
G1 X195.414 Y186.131 E.02906
G1 X194.708 Y186.241 E.02748
G1 X193.978 Y186.282 E.02813
G1 X126.023 Y186.282 E2.61481
G1 X125.241 Y186.234 E.03017
G1 X124.401 Y186.077 E.03289
G1 X123.672 Y185.865 E.02922
G1 X122.964 Y185.562 E.02961
G1 X122.319 Y185.189 E.02866
G1 X121.878 Y184.869 E.02099
G1 X121.142 Y184.225 E.03765
G1 X120.647 Y183.66 E.02888
G1 X120.22 Y183.036 E.02908
G1 X119.86 Y182.349 E.02986
G1 X119.57 Y181.642 E.02943
G1 X119.369 Y180.914 E.02906
G1 X119.259 Y180.208 E.02748
G1 X119.218 Y179.478 E.02813
G1 X119.219 Y140.516 E1.49923
M73 P8 R4
G1 X119.266 Y139.741 E.02987
G1 X119.423 Y138.901 E.03289
G1 X119.635 Y138.172 E.02922
G1 X119.938 Y137.464 E.02961
G1 X120.311 Y136.819 E.02866
G1 X120.631 Y136.378 E.02099
G1 X121.275 Y135.642 E.03765
G1 X121.745 Y135.229 E.02405
G1 X122.031 Y135.555 F16200
G1 F3000
G1 X122.1 Y135.495 E.0035
G1 X122.681 Y135.096 E.02711
G1 X123.329 Y134.756 E.02816
G1 X124.006 Y134.478 E.02818
G1 X124.685 Y134.292 E.02708
G1 X125.344 Y134.19 E.02566
G1 X126.038 Y134.152 E.02674
G1 X193.967 Y134.152 E2.61384
G1 X194.714 Y134.198 E.02879
G1 X195.492 Y134.344 E.03047
G1 X196.204 Y134.552 E.02852
G1 X196.848 Y134.83 E.027
G1 X197.45 Y135.178 E.02676
G1 X197.865 Y135.481 E.01978
G1 X198.545 Y136.076 E.03476
G1 X199.024 Y136.624 E.02799
G1 X199.419 Y137.206 E.02707
G1 X199.739 Y137.818 E.02657
G1 X200.022 Y138.507 E.02865
G1 X200.205 Y139.171 E.02651
G1 X200.31 Y139.844 E.02623
G1 X200.348 Y140.538 E.02673
G1 X200.348 Y179.46 E1.49767
G1 X200.305 Y180.183 E.02786
G1 X200.156 Y180.993 E.0317
G1 X199.958 Y181.675 E.02733
G1 X199.684 Y182.321 E.02701
G1 X199.333 Y182.932 E.02711
G1 X198.897 Y183.519 E.02816
G1 X198.406 Y184.063 E.02818
G1 X197.889 Y184.514 E.02642
G1 X197.319 Y184.903 E.02653
G1 X196.671 Y185.244 E.02817
G1 X195.994 Y185.522 E.02818
G1 X195.315 Y185.708 E.02708
G1 X194.656 Y185.81 E.02566
G1 X193.962 Y185.848 E.02674
G1 X126.041 Y185.848 E2.61354
M73 P9 R4
G1 X125.286 Y185.802 E.02909
G1 X124.507 Y185.656 E.03048
G1 X123.811 Y185.453 E.02793
G1 X123.152 Y185.17 E.02759
G1 X122.561 Y184.829 E.02624
G1 X122.153 Y184.534 E.01939
G1 X121.455 Y183.923 E.03568
G1 X120.995 Y183.4 E.0268
G1 X120.596 Y182.819 E.02711
G1 X120.256 Y182.171 E.02816
G1 X119.978 Y181.494 E.02818
G1 X119.792 Y180.815 E.02708
G1 X119.69 Y180.156 E.02566
G1 X119.652 Y179.462 E.02674
G1 X119.652 Y140.525 E1.49826
G1 X119.698 Y139.786 E.02849
G1 X119.844 Y139.007 E.03048
G1 X120.047 Y138.311 E.02793
G1 X120.33 Y137.652 E.02759
G1 X120.671 Y137.061 E.02624
G1 X120.966 Y136.653 E.01939
G1 X121.577 Y135.955 E.03568
G1 X122.001 Y135.581 E.02177
G1 X122.288 Y135.906 F16200
G1 F3000
G1 X122.36 Y135.842 E.0037
G1 X122.899 Y135.472 E.02514
G1 X123.518 Y135.147 E.02692
G1 X124.154 Y134.887 E.02644
G1 X124.783 Y134.715 E.0251
G1 X125.396 Y134.621 E.02385
G1 X126.054 Y134.585 E.02536
G1 X193.95 Y134.585 E2.61255
M73 P10 R4
G1 X194.668 Y134.631 E.02771
G1 X195.385 Y134.764 E.02805
G1 X196.064 Y134.963 E.02722
G1 X196.66 Y135.221 E.02498
G1 X197.218 Y135.546 E.02487
G1 X197.599 Y135.824 E.01813
G1 X198.231 Y136.378 E.03235
G1 X198.685 Y136.896 E.0265
G1 X199.042 Y137.423 E.0245
G1 X199.343 Y137.996 E.0249
G1 X199.613 Y138.654 E.0274
G1 X199.782 Y139.269 E.02453
G1 X199.879 Y139.896 E.02441
G1 X199.915 Y140.554 E.02534
G1 X199.915 Y179.443 E1.49642
G1 X199.875 Y180.122 E.02619
G1 X199.735 Y180.887 E.02989
G1 X199.552 Y181.522 E.02545
G1 X199.298 Y182.12 E.025
G1 X198.974 Y182.687 E.02514
G1 X198.557 Y183.249 E.02692
G1 X198.096 Y183.759 E.02644
G1 X197.617 Y184.175 E.02443
G1 X197.102 Y184.527 E.024
G1 X196.482 Y184.853 E.02693
G1 X195.846 Y185.113 E.02644
G1 X195.217 Y185.285 E.0251
G1 X194.604 Y185.379 E.02385
G1 X193.946 Y185.415 E.02536
G1 X126.058 Y185.415 E2.61226
M73 P11 R4
G1 X125.331 Y185.369 E.02801
G1 X124.614 Y185.236 E.02807
G1 X123.965 Y185.047 E.02603
G1 X123.34 Y184.778 E.02618
G1 X122.803 Y184.468 E.02385
G1 X122.428 Y184.198 E.01779
G1 X121.768 Y183.621 E.03372
G1 X121.342 Y183.14 E.02473
G1 X120.972 Y182.601 E.02514
G1 X120.647 Y181.982 E.02692
G1 X120.387 Y181.346 E.02644
G1 X120.215 Y180.717 E.0251
G1 X120.121 Y180.104 E.02385
G1 X120.085 Y179.446 E.02536
G1 X120.086 Y140.534 E1.49728
G1 X120.131 Y139.832 E.02709
G1 X120.264 Y139.114 E.02808
G1 X120.453 Y138.465 E.02603
G1 X120.722 Y137.84 E.02618
G1 X121.032 Y137.303 E.02385
G1 X121.302 Y136.928 E.01779
G1 X121.879 Y136.268 E.03372
G1 X122.258 Y135.933 E.01949
G1 X122.546 Y136.257 F16200
G1 F3000
G1 X122.621 Y136.19 E.00389
G1 X123.117 Y135.848 E.02315
G1 X123.695 Y135.543 E.02517
G1 X124.301 Y135.296 E.02516
G1 X124.88 Y135.139 E.02312
G1 X125.447 Y135.053 E.02204
G1 X126.069 Y135.018 E.02399
G1 X193.932 Y135.018 E2.61126
G1 X194.622 Y135.063 E.02663
M73 P12 R4
G1 X195.29 Y135.188 E.02615
G1 X195.924 Y135.375 E.0254
G1 X196.471 Y135.612 E.02296
G1 X196.987 Y135.913 E.02298
G1 X197.332 Y136.166 E.01648
G1 X197.918 Y136.679 E.02994
G1 X198.346 Y137.168 E.025
G1 X198.673 Y137.652 E.02251
G1 X198.947 Y138.173 E.02265
G1 X199.204 Y138.802 E.02613
G1 X199.359 Y139.367 E.02254
G1 X199.448 Y139.948 E.0226
G1 X199.482 Y140.569 E.02396
G1 X199.482 Y179.434 E1.49547
G1 X199.443 Y180.078 E.02483
G1 X199.314 Y180.781 E.02748
G1 X199.145 Y181.369 E.02357
G1 X198.906 Y181.934 E.0236
G1 X198.606 Y182.456 E.02315
G1 X198.225 Y182.969 E.02459
G1 X197.797 Y183.443 E.02457
G1 X197.357 Y183.827 E.02247
G1 X196.884 Y184.152 E.02208
G1 X196.305 Y184.457 E.0252
G1 X195.699 Y184.704 E.02516
G1 X195.12 Y184.861 E.02312
G1 X194.553 Y184.947 E.02204
G1 X193.931 Y184.982 E.02399
G1 X126.076 Y184.982 E2.61097
G1 X125.393 Y184.939 E.02633
G1 X124.721 Y184.815 E.02629
G1 X124.104 Y184.635 E.02473
G1 X123.527 Y184.387 E.02416
G1 X123.044 Y184.107 E.02148
G1 X122.702 Y183.862 E.01619
G1 X122.08 Y183.319 E.03176
G1 X121.69 Y182.879 E.02265
G1 X121.348 Y182.383 E.02315
G1 X121.043 Y181.805 E.02517
G1 X120.796 Y181.199 E.02516
G1 X120.639 Y180.62 E.02312
G1 X120.553 Y180.053 E.02204
G1 X120.518 Y179.431 E.02399
G1 X120.519 Y140.544 E1.49631
M73 P13 R4
G1 X120.563 Y139.878 E.02569
G1 X120.685 Y139.221 E.02571
G1 X120.865 Y138.604 E.02473
G1 X121.113 Y138.027 E.02416
G1 X121.393 Y137.544 E.02148
G1 X121.638 Y137.202 E.01619
G1 X122.181 Y136.58 E.03176
G1 X122.516 Y136.283 E.01722
G1 X122.804 Y136.607 F16200
G1 F3000
G1 X122.883 Y136.537 E.00408
G1 X123.335 Y136.224 E.02116
G1 X123.884 Y135.933 E.0239
G1 X124.447 Y135.705 E.02337
G1 X124.977 Y135.562 E.02113
G1 X125.498 Y135.484 E.02024
G1 X126.085 Y135.451 E.02264
G1 X193.914 Y135.451 E2.60997
G1 X194.576 Y135.495 E.02555
G1 X195.195 Y135.612 E.02424
G1 X195.783 Y135.786 E.02358
G1 X196.281 Y136.003 E.02093
G1 X196.755 Y136.28 E.02109
G1 X197.066 Y136.508 E.01484
G1 X197.604 Y136.98 E.02756
G1 X198.007 Y137.439 E.0235
G1 X198.304 Y137.881 E.02051
G1 X198.551 Y138.351 E.02042
G1 X198.796 Y138.949 E.02486
G1 X198.935 Y139.465 E.02055
G1 X199.016 Y139.999 E.0208
G1 X199.049 Y140.585 E.02258
G1 X199.048 Y179.425 E1.49451
G1 X199.01 Y180.034 E.02347
G1 X198.893 Y180.675 E.0251
G1 X198.733 Y181.232 E.02229
G1 X198.513 Y181.748 E.02159
G1 X198.238 Y182.224 E.02115
M73 P14 R4
G1 X197.893 Y182.689 E.02228
G1 X197.498 Y183.128 E.02272
G1 X197.097 Y183.479 E.02051
G1 X196.666 Y183.776 E.02015
G1 X196.116 Y184.067 E.02395
G1 X195.553 Y184.295 E.02337
G1 X195.023 Y184.438 E.02113
G1 X194.502 Y184.516 E.02024
G1 X193.915 Y184.549 E.02264
G1 X126.093 Y184.549 E2.60969
G1 X125.454 Y184.509 E.02466
G1 X124.828 Y184.394 E.0245
G1 X124.258 Y184.229 E.0228
G1 X123.716 Y183.995 E.02274
G1 X123.285 Y183.746 E.01914
G1 X122.977 Y183.525 E.01459
G1 X122.392 Y183.017 E.02982
G1 X122.037 Y182.617 E.02059
G1 X121.724 Y182.165 E.02116
G1 X121.433 Y181.616 E.0239
G1 X121.205 Y181.053 E.02337
G1 X121.062 Y180.523 E.02113
G1 X120.984 Y180.002 E.02024
G1 X120.951 Y179.415 E.02264
G1 X120.953 Y140.554 E1.49532
G1 X120.993 Y139.94 E.0237
G1 X121.106 Y139.328 E.02394
G1 X121.271 Y138.758 E.02281
G1 X121.505 Y138.216 E.02274
G1 X121.754 Y137.785 E.01914
G1 X121.975 Y137.477 E.01459
G1 X122.483 Y136.892 E.02982
G1 X122.774 Y136.634 E.01496
G1 X123.063 Y136.957 F16200
G1 F3000
G1 X123.146 Y136.883 E.00427
G1 X123.554 Y136.599 E.01916
G1 X124.062 Y136.33 E.0221
G1 X124.593 Y136.114 E.02207
G1 X125.074 Y135.986 E.01914
G1 X125.548 Y135.915 E.01845
G1 X126.1 Y135.884 E.02129
G1 X193.895 Y135.885 E2.60866
M73 P15 R4
G1 X194.529 Y135.927 E.02446
G1 X195.1 Y136.035 E.02233
G1 X195.641 Y136.197 E.02175
G1 X196.091 Y136.394 E.01891
G1 X196.522 Y136.647 E.01921
G1 X196.798 Y136.85 E.01321
G1 X197.291 Y137.281 E.02519
G1 X197.657 Y137.698 E.02135
G1 X197.928 Y138.098 E.01858
G1 X198.16 Y138.54 E.01922
G1 X198.381 Y139.081 E.02248
G1 X198.512 Y139.561 E.01916
G1 X198.585 Y140.05 E.019
G1 X198.615 Y140.593 E.02095
G1 X198.615 Y179.415 E1.49383
