; HEADER_BLOCK_START
; generated by OrcaSlicer 1.8.0-beta1 on 2024-11-24 at 10:48:31
; total layer number: 53
; HEADER_BLOCK_END


;
;
; external perimeters extrusion width = 0.40mm
; perimeters extrusion width = 0.45mm
; infill extrusion width = 0.45mm
; solid infill extrusion width = 0.40mm
; top infill extrusion width = 0.40mm
; support material extrusion width = 0.40mm
; first layer extrusion width = 0.48mm

; EXECUTABLE_BLOCK_START
EXCLUDE_OBJECT_DEFINE NAME=PCA9685_Carrier.STL_id_0_copy_0 CENTER=160,160 POLYGON=[[127,133],[193,133],[193,187],[127,187],[127,133]]
M73 P0 R32
;TYPE:Custom
M190 S60
M109 S215
PRINT_START EXTRUDER=215 BED=60
G90
G21
M83 ; use relative distances for extrusion
; filament start gcode
M106 S0
;LAYER_CHANGE
;Z:0.218
;HEIGHT:0.218
;BEFORE_LAYER_CHANGE
;0.218
G92 E0

G1 E-.4 F1800
;AFTER_LAYER_CHANGE
;0.218
;_SET_FAN_SPEED_CHANGING_LAYER
SET_VELOCITY_LIMIT ACCEL=500 ACCEL_TO_DECEL=250
G1 Z.4 F16200
G1 X117.788 Y122.667
G1 Z.4
G1 Z.218
G1 E.4 F1800
;TYPE:Skirt
;WIDTH:0.48
G1 F3000
G1 X118.327 Y122.149 E.02874
G1 X119.679 Y121.194 E.06371
G1 X121.136 Y120.407 E.06371
G1 X122.518 Y119.85 E.05734
G1 X123.586 Y119.538 E.04281
G1 X125.348 Y119.212 E.06894
G1 X126.452 Y119.124 E.0426
G1 X183.812 Y119.114 E2.20717
G1 X185.461 Y119.263 E.06371
G1 X187.081 Y119.609 E.06371
G1 X188.764 Y120.199 E.06866
G1 X189.76 Y120.667 E.04235
G1 X198.058 Y125.555 E.37054
G1 X199.159 Y126.41 E.05366
G1 X200.012 Y127.278 E.04684
G1 X201.071 Y128.764 E.0702
G1 X201.833 Y130.422 E.0702
G1 X206.462 Y146.086 E.62852
G1 X206.788 Y147.848 E.06894
G1 X206.898 Y149.5 E.06371
G1 X206.886 Y187.412 E1.45882
G1 X206.588 Y189.88 E.09565
G1 X206.145 Y191.476 E.06371
G1 X205.801 Y192.364 E.03668
G1 X204.916 Y194.119 E.07563
G1 X203.461 Y196.134 E.09565
G1 X201.673 Y197.851 E.09535
G1 X200.321 Y198.806 E.06371
G1 X198.864 Y199.593 E.06371
G1 X197.482 Y200.15 E.05734
G1 X195.602 Y200.644 E.07479
G1 X194.652 Y200.788 E.03696
G1 X193 Y200.898 E.06371
G1 X126.588 Y200.886 E2.55546
G1 X124.12 Y200.588 E.09565
G1 X122.524 Y200.145 E.06371
G1 X121.636 Y199.801 E.03668
G1 X119.881 Y198.916 E.07563
G1 X117.866 Y197.461 E.09565
G1 X116.149 Y195.673 E.09535
G1 X115.194 Y194.321 E.06371
G1 X114.407 Y192.864 E.06371
G1 X113.85 Y191.482 E.05734
G1 X113.356 Y189.602 E.07479
G1 X113.212 Y188.652 E.03696
G1 X113.102 Y187 E.06371
G1 X113.114 Y132.588 E2.09372
G1 X113.412 Y130.12 E.09565
G1 X113.855 Y128.524 E.06371
G1 X114.199 Y127.636 E.03668
G1 X115.084 Y125.881 E.07563
G1 X116.539 Y123.866 E.09565
G1 X117.759 Y122.694 E.06507
G1 X118.057 Y123.005 F16200
G1 F3000
G1 X118.587 Y122.496 E.02828
G1 X119.896 Y121.569 E.06171
G1 X121.307 Y120.806 E.06171
G1 X122.65 Y120.263 E.05574
G1 X123.681 Y119.96 E.04133
G1 X125.383 Y119.644 E.06661
G1 X126.486 Y119.556 E.0426
G1 X183.786 Y119.547 E2.20484
G1 X185.384 Y119.689 E.06171
G1 X186.953 Y120.022 E.06171
G1 X188.58 Y120.591 E.06634
G1 X189.576 Y121.059 E.04235
G1 X197.814 Y125.913 E.36792
G1 X198.873 Y126.735 E.05156
G1 X199.687 Y127.565 E.04475
G1 X200.698 Y128.985 E.06706
G1 X201.425 Y130.569 E.06706
G1 X206.04 Y146.181 E.62642
G1 X206.356 Y147.883 E.06661
G1 X206.465 Y149.5 E.06238
G1 X206.453 Y187.386 E1.45782
G1 X206.161 Y189.802 E.09365
G1 X205.731 Y191.347 E.06171
G1 X205.409 Y192.18 E.03436
G1 X204.55 Y193.887 E.07353
G1 X203.125 Y195.86 E.09365
G1 X201.413 Y197.504 E.09135
G1 X200.104 Y198.431 E.06171
G1 X198.693 Y199.194 E.06171
G1 X197.35 Y199.737 E.05574
G1 X195.507 Y200.221 E.07331
G1 X193 Y200.465 E.09693
G1 X126.614 Y200.453 E2.55446
G1 X124.198 Y200.161 E.09365
G1 X122.653 Y199.731 E.06171
G1 X121.82 Y199.409 E.03436
G1 X120.113 Y198.55 E.07353
G1 X118.14 Y197.125 E.09365
G1 X116.496 Y195.413 E.09135
G1 X115.569 Y194.104 E.06171
G1 X114.806 Y192.693 E.06171
G1 X114.263 Y191.35 E.05574
G1 X113.779 Y189.507 E.07331
G1 X113.535 Y187 E.09693
G1 X113.547 Y132.614 E2.09272
G1 X113.839 Y130.198 E.09365
G1 X114.269 Y128.653 E.06171
G1 X114.591 Y127.82 E.03436
G1 X115.45 Y126.113 E.07353
G1 X116.875 Y124.14 E.09365
G1 X118.028 Y123.032 E.06154
; printing object PCA9685_Carrier.STL id:0 copy 0
G1 E-.28 F1800
;WIPE_START
G1 F3000
G1 X118.587 Y122.496 E-.09299
G1 X118.771 Y122.365 E-.02701
;WIPE_END
G1 E0 F1800
EXCLUDE_OBJECT_START NAME=PCA9685_Carrier.STL_id_0_copy_0
G1 Z.618 F16200
G1 X144.383 Y128.88 Z.618
G1 Z.218
G1 E.4 F1800
;TYPE:Support
G1 F3000
G1 X144.567 Y128.367 E.02096
G1 X144.845 Y127.898 E.02096
G1 X145.205 Y127.49 E.02096
G1 X145.636 Y127.156 E.02096
G1 X146.121 Y126.909 E.02096
G1 X146.644 Y126.757 E.02096
G1 X147.005 Y126.711 E.01399
G1 X147.368 Y126.711 E.01399
G1 X147.906 Y126.796 E.02096
G1 X148.419 Y126.981 E.02096
G1 X148.888 Y127.258 E.02096
G1 X149.297 Y127.618 E.02096
G1 X149.631 Y128.049 E.02096
G1 X149.878 Y128.534 E.02096
G1 X150.03 Y129.058 E.02096
G1 X150.076 Y129.418 E.01399
G1 X150.076 Y129.782 E.01399
G1 X149.99 Y130.32 E.02096
G1 X149.806 Y130.832 E.02096
G1 X149.528 Y131.301 E.02096
G1 X149.168 Y131.71 E.02096
G1 X148.738 Y132.044 E.02096
G1 X148.252 Y132.291 E.02096
G1 X147.729 Y132.443 E.02096
G1 X147.368 Y132.489 E.01399
G1 X147.005 Y132.489 E.01399
G1 X146.467 Y132.404 E.02096
G1 X145.954 Y132.219 E.02096
G1 X145.485 Y131.942 E.02096
G1 X145.077 Y131.581 E.02096
G1 X144.743 Y131.151 E.02096
G1 X144.495 Y130.665 E.02096
G1 X144.343 Y130.142 E.02096
G1 X144.298 Y129.782 E.01399
G1 X144.298 Y129.418 E.01399
G1 X144.377 Y128.92 E.01943
G1 X144.803 Y128.988 F16200
G1 F3000
G1 X144.96 Y128.552 E.01783
G1 X145.195 Y128.153 E.01782
G1 X145.502 Y127.806 E.01782
G1 X145.868 Y127.522 E.01782
G1 X146.139 Y127.373 E.01189
G1 X146.426 Y127.259 E.01189
G1 X146.878 Y127.158 E.01782
G1 X147.341 Y127.144 E.01783
G1 X147.799 Y127.216 E.01783
G1 X148.235 Y127.373 E.01783
G1 X148.633 Y127.609 E.01782
G1 X148.981 Y127.915 E.01782
G1 X149.265 Y128.281 E.01782
G1 X149.414 Y128.552 E.01189
G1 X149.527 Y128.839 E.01189
G1 X149.628 Y129.291 E.01782
G1 X149.643 Y129.754 E.01783
G1 X149.57 Y130.212 E.01783
G1 X149.414 Y130.648 E.01783
G1 X149.178 Y131.047 E.01782
G1 X148.871 Y131.394 E.01782
G1 X148.505 Y131.678 E.01782
G1 X148.235 Y131.827 E.01189
G1 X147.947 Y131.941 E.01189
G1 X147.495 Y132.042 E.01782
G1 X147.032 Y132.056 E.01783
G1 X146.575 Y131.984 E.01783
G1 X146.139 Y131.827 E.01783
G1 X145.74 Y131.591 E.01782
G1 X145.392 Y131.285 E.01782
G1 X145.109 Y130.919 E.01782
G1 X144.96 Y130.648 E.01189
G1 X144.846 Y130.36 E.01189
G1 X144.745 Y129.908 E.01782
G1 X144.73 Y129.445 E.01783
G1 X144.796 Y129.027 E.01629
G1 X145.223 Y129.096 F16200
G1 F3000
G1 X145.352 Y128.737 E.01469
G1 X145.546 Y128.408 E.01469
G1 X145.798 Y128.122 E.01469
G1 X146.1 Y127.888 E.01469
G1 X146.44 Y127.715 E.01469
G1 X146.682 Y127.636 E.0098
G1 X146.932 Y127.588 E.0098
G1 X147.314 Y127.576 E.01469
G1 X147.691 Y127.636 E.01469
G1 X148.05 Y127.765 E.01469
G1 X148.379 Y127.959 E.01469
G1 X148.665 Y128.212 E.01469
G1 X148.899 Y128.513 E.01469
G1 X149.072 Y128.853 E.01469
G1 X149.151 Y129.096 E.0098
G1 X149.198 Y129.346 E.0098
G1 X149.21 Y129.727 E.01469
G1 X149.151 Y130.104 E.01469
G1 X149.021 Y130.463 E.01469
G1 X148.827 Y130.792 E.01469
G1 X148.575 Y131.078 E.01469
G1 X148.273 Y131.312 E.01469
G1 X147.933 Y131.485 E.01469
G1 X147.691 Y131.564 E.0098
G1 X147.441 Y131.612 E.0098
G1 X147.059 Y131.624 E.01469
G1 X146.682 Y131.564 E.01469
G1 X146.323 Y131.435 E.01469
G1 X145.995 Y131.24 E.01469
G1 X145.708 Y130.988 E.01469
G1 X145.474 Y130.686 E.01469
G1 X145.301 Y130.346 E.01469
G1 X145.223 Y130.104 E.0098
G1 X145.175 Y129.854 E.0098
G1 X145.163 Y129.473 E.01469
G1 X145.216 Y129.135 E.01315
G1 X145.642 Y129.203 F16200
G1 F3000
G1 X145.744 Y128.921 E.01155
G1 X145.897 Y128.663 E.01155
G1 X146.095 Y128.438 E.01155
G1 X146.332 Y128.254 E.01155
G1 X146.6 Y128.118 E.01155
G1 X146.888 Y128.034 E.01155
G1 X147.087 Y128.009 E.00771
G1 X147.287 Y128.009 E.0077
G1 X147.583 Y128.056 E.01155
G1 X147.865 Y128.157 E.01155
G1 X148.124 Y128.31 E.01155
G1 X148.349 Y128.508 E.01155
G1 X148.533 Y128.746 E.01155
G1 X148.669 Y129.013 E.01155
G1 X148.753 Y129.301 E.01155
G1 X148.778 Y129.5 E.00771
G1 X148.778 Y129.7 E.0077
G1 X148.731 Y129.996 E.01155
G1 X148.629 Y130.279 E.01155
G1 X148.476 Y130.537 E.01155
G1 X148.278 Y130.762 E.01155
G1 X148.041 Y130.946 E.01155
G1 X147.774 Y131.082 E.01155
G1 X147.485 Y131.166 E.01155
G1 X147.287 Y131.191 E.00771
G1 X147.087 Y131.191 E.0077
G1 X146.79 Y131.144 E.01155
G1 X146.508 Y131.043 E.01155
G1 X146.249 Y130.89 E.01155
G1 X146.024 Y130.691 E.01155
G1 X145.84 Y130.454 E.01155
G1 X145.704 Y130.187 E.01155
G1 X145.62 Y129.899 E.01155
G1 X145.595 Y129.7 E.00771
G1 X145.595 Y129.5 E.0077
G1 X145.636 Y129.243 E.01001
G1 X146.062 Y129.311 F16200
G1 F3000
G1 X146.136 Y129.106 E.00841
G1 X146.247 Y128.918 E.00841
G1 X146.392 Y128.754 E.00841
G1 X146.565 Y128.62 E.00841
G1 X146.759 Y128.521 E.00841
G1 X146.969 Y128.46 E.00841
G1 X147.259 Y128.441 E.0112
G1 X147.475 Y128.475 E.00841
G1 X147.681 Y128.549 E.00841
G1 X147.869 Y128.661 E.00841
G1 X148.033 Y128.805 E.00841
G1 X148.167 Y128.978 E.00841
G1 X148.266 Y129.173 E.00841
G1 X148.327 Y129.382 E.00841
G1 X148.345 Y129.673 E.0112
G1 X148.311 Y129.889 E.00841
G1 X148.237 Y130.094 E.00841
G1 X148.126 Y130.282 E.00841
G1 X147.981 Y130.446 E.00841
G1 X147.809 Y130.58 E.00841
G1 X147.614 Y130.679 E.00841
G1 X147.404 Y130.74 E.00841
G1 X147.114 Y130.759 E.0112
G1 X146.898 Y130.724 E.00841
G1 X146.692 Y130.65 E.00841
G1 X146.504 Y130.539 E.00841
G1 X146.34 Y130.395 E.00841
G1 X146.206 Y130.222 E.00841
G1 X146.107 Y130.027 E.00841
G1 X146.046 Y129.817 E.00841
G1 X146.028 Y129.527 E.0112
G1 X146.056 Y129.351 E.00687
G1 X146.482 Y129.419 F16200
G1 F3000
G1 X146.528 Y129.29 E.00527
G1 X146.598 Y129.172 E.00527
G1 X146.689 Y129.07 E.00527
G1 X146.797 Y128.986 E.00527
G1 X146.919 Y128.924 E.00527
G1 X147.05 Y128.885 E.00527
G1 X147.232 Y128.874 E.00702
G1 X147.368 Y128.895 E.00527
G1 X147.496 Y128.942 E.00527
G1 X147.614 Y129.011 E.00527
G1 X147.717 Y129.102 E.00527
G1 X147.801 Y129.21 E.00527
G1 X147.863 Y129.332 E.00527
G1 X147.901 Y129.464 E.00527
G1 X147.913 Y129.646 E.00702
G1 X147.891 Y129.781 E.00527
G1 X147.845 Y129.91 E.00527
G1 X147.775 Y130.028 E.00527
G1 X147.685 Y130.13 E.00527
G1 X147.576 Y130.214 E.00527
G1 X147.454 Y130.276 E.00527
G1 X147.323 Y130.315 E.00527
G1 X147.141 Y130.326 E.00702
G1 X147.006 Y130.305 E.00527
G1 X146.877 Y130.258 E.00527
G1 X146.759 Y130.188 E.00527
G1 X146.656 Y130.098 E.00527
G1 X146.572 Y129.99 E.00527
G1 X146.51 Y129.868 E.00527
G1 X146.472 Y129.736 E.00527
G1 X146.461 Y129.554 E.00702
G1 X146.476 Y129.458 E.00373
G1 X146.897 Y129.567 F16200
G1 F3000
G1 X146.921 Y129.475 E.00365
G1 X146.985 Y129.386 E.00424
G1 X147.078 Y129.327 E.00424
G1 X147.205 Y129.306 E.00494
G1 X147.312 Y129.334 E.00424
G1 X147.401 Y129.399 E.00424
G1 X147.46 Y129.492 E.00424
G1 X147.48 Y129.618 E.00494
G1 X147.453 Y129.725 E.00424
G1 X147.388 Y129.814 E.00424
G1 X147.295 Y129.873 E.00424
G1 X147.168 Y129.893 E.00494
G1 X147.061 Y129.866 E.00424
G1 X146.972 Y129.801 E.00424
G1 X146.913 Y129.708 E.00424
G1 X146.897 Y129.606 E.00399
G1 E-.28 F1800
;WIPE_START
G1 F3000
G1 X146.921 Y129.475 E-.01599
G1 X146.985 Y129.386 E-.01322
G1 X147.078 Y129.327 E-.01322
G1 X147.205 Y129.306 E-.01539
G1 X147.312 Y129.334 E-.01323
G1 X147.401 Y129.399 E-.01322
G1 X147.46 Y129.492 E-.01322
G1 X147.48 Y129.618 E-.01539
G1 X147.465 Y129.676 E-.0071
;WIPE_END
G1 Z.618 F16200
G1 X183.817 Y132.796 Z.618
G1 Z.218
G1 E.4 F1800
G1 F3000
G1 X184.12 Y132.413 E.01881
G1 X184.499 Y132.093 E.01909
G1 X184.786 Y131.923 E.01283
G1 X185.255 Y131.739 E.0194
G1 X185.587 Y131.666 E.01308
G1 X186.101 Y131.635 E.01979
G1 X186.616 Y131.698 E.02
G1 X187.117 Y131.853 E.02014
G1 X187.433 Y132.004 E.01348
G1 X187.868 Y132.298 E.02022
G1 X188.127 Y132.533 E.01345
G1 X188.338 Y132.777 E.01241
G1 X188.56 Y132.936 E.0105
G1 X188.816 Y133.159 E.01307
G1 X189.138 Y133.546 E.01939
G1 X189.377 Y133.984 E.01918
G1 X189.485 Y134.296 E.01271
G1 X189.566 Y134.783 E.01898
G1 X189.565 Y135.112 E.01266
G1 X189.527 Y135.395 E.011
G1 X189.647 Y135.547 E.00745
G1 X190.096 Y135.607 E.01741
G1 X190.423 Y135.7 E.01309
G1 X190.685 Y135.802 E.01082
G1 X190.88 Y135.523 E.01311
G1 X190.57 Y135.156 E.01846
G1 X190.32 Y134.733 E.01891
G1 X190.2 Y134.428 E.01262
G1 X190.092 Y133.949 E.01891
G1 X190.072 Y133.622 E.01262
G1 X190.092 Y133.294 E.01262
G1 X190.2 Y132.815 E.01891
G1 X190.32 Y132.51 E.01262
G1 X190.478 Y132.223 E.01262
G1 X190.779 Y131.834 E.01891
G1 X191.018 Y131.61 E.01262
G1 X191.284 Y131.417 E.01262
G1 X191.571 Y131.259 E.01262
G1 X192.033 Y131.093 E.01891
G1 X192.519 Y131.016 E.01891
G1 X192.847 Y131.016 E.01262
G1 X193.172 Y131.057 E.01262
G1 X193.49 Y131.138 E.01262
G1 X193.795 Y131.259 E.01262
G1 X194.082 Y131.417 E.01262
G1 X194.47 Y131.718 E.01891
G1 X194.695 Y131.957 E.01262
G1 X194.887 Y132.223 E.01262
G1 X195.045 Y132.51 E.01262
G1 X195.166 Y132.815 E.01262
G1 X195.248 Y133.132 E.01262
G1 X195.289 Y133.458 E.01262
G1 X195.289 Y133.786 E.01262
G1 X195.248 Y134.111 E.01262
G1 X195.111 Y134.583 E.01891
G1 X194.887 Y135.021 E.01891
G1 X194.586 Y135.409 E.01891
G1 X194.347 Y135.633 E.01262
G1 X194.082 Y135.826 E.01262
G1 X193.644 Y136.049 E.01891
G1 X193.172 Y136.186 E.01891
G1 X192.847 Y136.228 E.01262
G1 X192.519 Y136.228 E.01262
G1 X192.033 Y136.151 E.01891
G1 X191.549 Y135.975 E.01982
G1 X191.346 Y136.26 E.01348
G1 X191.617 Y136.573 E.01592
G1 X191.87 Y136.996 E.01897
G1 X191.99 Y137.303 E.01266
G1 X192.089 Y137.787 E.01904
G1 X192.101 Y138.119 E.01278
G1 X192.069 Y138.452 E.01287
G1 X191.995 Y138.781 E.01297
G1 X191.805 Y139.254 E.01963
G1 X191.629 Y139.55 E.01323
G1 X191.418 Y139.824 E.01332
G1 X191.174 Y140.072 E.01339
G1 X190.901 Y140.291 E.01345
G1 X190.447 Y140.556 E.02022
G1 X189.928 Y140.753 E.02136
G1 X189.686 Y140.923 E.01139
G1 X189.378 Y141.091 E.01349
G1 X189.053 Y141.222 E.01349
G1 X188.633 Y141.334 E.01674
G1 X188.562 Y141.574 E.00962
G1 X188.701 Y141.721 E.00781
G1 X188.908 Y141.986 E.01295
G1 X189.133 Y142.392 E.01787
G1 X189.395 Y142.405 E.01006
M73 P1 R32
G1 X189.51 Y142.211 E.00869
G1 X189.702 Y141.945 E.01262
G1 X189.927 Y141.706 E.01262
G1 X190.179 Y141.497 E.01262
G1 X190.602 Y141.247 E.01891
G1 X190.907 Y141.127 E.01262
G1 X191.225 Y141.045 E.01262
G1 X191.55 Y141.004 E.01262
G1 X191.878 Y141.004 E.01262
G1 X192.364 Y141.081 E.01891
G1 X192.675 Y141.182 E.01262
G1 X192.972 Y141.322 E.01262
G1 X193.249 Y141.497 E.01262
G1 X193.502 Y141.706 E.01262
G1 X193.726 Y141.945 E.01262
G1 X194.002 Y142.352 E.01891
G1 X194.197 Y142.803 E.01891
G1 X194.279 Y143.121 E.01262
G1 X194.32 Y143.446 E.01262
G1 X194.305 Y143.937 E.01891
G1 X194.197 Y144.417 E.01891
G1 X194.059 Y144.762 E.01431
G1 X194.072 Y144.876 E.00441
G1 X194.203 Y145.057 E.00862
G1 X194.378 Y145.354 E.01326
G1 X194.572 Y145.837 E.02003
G1 X194.679 Y146.35 E.02016
G1 X194.699 Y146.7 E.01349
G1 X194.679 Y147.05 E.01349
G1 X194.618 Y147.394 E.01346
G1 X194.517 Y147.728 E.01341
G1 X194.295 Y148.197 E.01997
G1 X194.103 Y148.481 E.01321
G1 X193.878 Y148.738 E.01311
G1 X193.626 Y148.962 E.013
G1 X193.354 Y149.148 E.01266
G1 X193.29 Y149.083 E.00351
G1 X190.721 Y149.083 E.09884
G1 X190.421 Y148.854 E.01452
G1 X190.074 Y148.481 E.0196
G1 X189.799 Y148.046 E.01983
G1 X189.604 Y147.563 E.02003
G1 X189.498 Y147.05 E.02016
G1 X189.482 Y146.524 E.02022
G1 X189.559 Y146.005 E.02019
G1 X189.66 Y145.672 E.01341
G1 X189.755 Y145.447 E.0094
G1 X189.742 Y145.325 E.00471
G1 X189.51 Y145.009 E.01508
G1 X189.3 Y144.603 E.01758
G1 X189.04 Y144.582 E.01003
G1 X188.809 Y144.926 E.01593
G1 X188.585 Y145.178 E.013
G1 X188.328 Y145.402 E.01311
G1 X187.893 Y145.678 E.01983
G1 X187.575 Y145.817 E.01334
G1 X187.241 Y145.917 E.01341
G1 X186.897 Y145.979 E.01346
G1 X186.371 Y145.994 E.02022
G1 X185.852 Y145.917 E.02019
G1 X185.519 Y145.817 E.01341
G1 X185.201 Y145.678 E.01334
G1 X184.904 Y145.502 E.01326
G1 X184.509 Y145.178 E.01968
G1 X184.284 Y144.926 E.013
G1 X184.095 Y144.649 E.0129
G1 X183.945 Y144.352 E.01281
G1 X183.817 Y143.959 E.01589
G1 X183.817 Y142.817 E.04396
G1 X183.945 Y142.424 E.01589
G1 X184.095 Y142.127 E.01281
