; HEADER_BLOCK_START
; generated by OrcaSlicer 1.8.0-beta1 on 2024-11-21 at 15:31:35
; total layer number: 25
; HEADER_BLOCK_END


;
;
; external perimeters extrusion width = 0.40mm
; perimeters extrusion width = 0.45mm
; infill extrusion width = 0.45mm
; solid infill extrusion width = 0.40mm
; top infill extrusion width = 0.40mm
; support material extrusion width = 0.40mm
; first layer extrusion width = 0.48mm

; external perimeters extrusion width = 0.40mm
; perimeters extrusion width = 0.45mm
; infill extrusion width = 0.45mm
; solid infill extrusion width = 0.40mm
; top infill extrusion width = 0.40mm
; support material extrusion width = 0.40mm
; first layer extrusion width = 0.48mm

; external perimeters extrusion width = 0.40mm
; perimeters extrusion width = 0.45mm
; infill extrusion width = 0.45mm
; solid infill extrusion width = 0.40mm
; top infill extrusion width = 0.40mm
; support material extrusion width = 0.40mm
; first layer extrusion width = 0.48mm

; external perimeters extrusion width = 0.40mm
; perimeters extrusion width = 0.45mm
; infill extrusion width = 0.45mm
; solid infill extrusion width = 0.40mm
; top infill extrusion width = 0.40mm
; support material extrusion width = 0.40mm
; first layer extrusion width = 0.48mm

; EXECUTABLE_BLOCK_START
EXCLUDE_OBJECT_DEFINE NAME=UltrasonicSensorCarrier.STL_id_0_copy_0 CENTER=180.5,195.394 POLYGON=[[157.215,180],[203.785,180],[203.785,208.79],[203.78,208.93],[203.766,209.068],[203.741,209.206],[203.708,209.341],[203.664,209.474],[203.612,209.603],[203.551,209.729],[203.481,209.85],[203.403,209.966],[203.317,210.076],[203.224,210.179],[203.123,210.276],[203.016,210.366],[202.903,210.448],[202.785,210.522],[202.662,210.588],[202.534,210.644],[202.403,210.692],[202.269,210.731],[202.132,210.76],[201.994,210.779],[201.855,210.789],[159.145,210.789],[159.006,210.779],[158.868,210.76],[158.731,210.731],[158.597,210.692],[158.466,210.644],[158.338,210.588],[158.215,210.522],[158.097,210.448],[157.984,210.366],[157.877,210.276],[157.776,210.179],[157.683,210.076],[157.597,209.966],[157.519,209.85],[157.449,209.729],[157.388,209.603],[157.336,209.474],[157.292,209.341],[157.259,209.206],[157.234,209.068],[157.22,208.93],[157.215,208.79],[157.215,180]]
EXCLUDE_OBJECT_DEFINE NAME=UltrasonicSensorCarrier.STL_id_1_copy_0 CENTER=180.5,154.606 POLYGON=[[157.215,139.211],[203.785,139.211],[203.785,168.001],[203.78,168.141],[203.766,168.28],[203.741,168.417],[203.708,168.552],[203.664,168.685],[203.612,168.815],[203.551,168.94],[203.481,169.061],[203.403,169.177],[203.317,169.287],[203.224,169.391],[203.123,169.488],[203.016,169.577],[202.903,169.659],[202.785,169.733],[202.662,169.799],[202.534,169.856],[202.403,169.903],[202.269,169.942],[202.132,169.971],[201.994,169.99],[201.855,170],[159.145,170],[159.006,169.99],[158.868,169.971],[158.731,169.942],[158.597,169.903],[158.466,169.856],[158.338,169.799],[158.215,169.733],[158.097,169.659],[157.984,169.577],[157.877,169.488],[157.776,169.391],[157.683,169.287],[157.597,169.177],[157.519,169.061],[157.449,168.94],[157.388,168.815],[157.336,168.685],[157.292,168.552],[157.259,168.417],[157.234,168.28],[157.22,168.141],[157.215,168.001],[157.215,139.211]]
EXCLUDE_OBJECT_DEFINE NAME=FanHolderSide.STL_id_2_copy_0 CENTER=131.715,171.906 POLYGON=[[116.215,155.157],[147.215,155.157],[147.215,185.157],[147.206,185.401],[147.181,185.644],[147.139,185.884],[147.079,186.122],[147.004,186.354],[146.912,186.58],[146.805,186.8],[146.683,187.012],[146.547,187.214],[146.396,187.407],[146.233,187.588],[146.057,187.758],[145.87,187.915],[145.672,188.058],[145.465,188.188],[145.249,188.303],[145.026,188.402],[144.797,188.486],[144.562,188.553],[144.323,188.604],[144.081,188.638],[143.837,188.655],[119.593,188.655],[119.349,188.638],[119.107,188.604],[118.868,188.553],[118.633,188.486],[118.404,188.402],[118.181,188.303],[117.965,188.188],[117.758,188.058],[117.56,187.915],[117.373,187.758],[117.197,187.588],[117.034,187.407],[116.883,187.214],[116.747,187.012],[116.625,186.8],[116.518,186.58],[116.426,186.354],[116.351,186.122],[116.291,185.884],[116.249,185.644],[116.224,185.401],[116.215,185.157],[116.215,155.157]]
EXCLUDE_OBJECT_DEFINE NAME=MCP2515_Carrier.STL_id_3_copy_0 CENTER=167.11,119.211 POLYGON=[[146.11,109.211],[188.11,109.211],[188.11,129.211],[146.11,129.211],[146.11,109.211]]
M73 P0 R38
;TYPE:Custom
M190 S60
M109 S215
PRINT_START EXTRUDER=215 BED=60
G90
G21
M83 ; use relative distances for extrusion
; filament start gcode
M106 S0
;LAYER_CHANGE
;Z:0.218
;HEIGHT:0.218
;BEFORE_LAYER_CHANGE
;0.218
G92 E0

G1 E-.4 F1800
;AFTER_LAYER_CHANGE
;0.218
;_SET_FAN_SPEED_CHANGING_LAYER
SET_VELOCITY_LIMIT ACCEL=500 ACCEL_TO_DECEL=250
G1 Z.4 F16200
G1 X134.682 Y101.323
G1 Z.4
G1 Z.218
G1 E.4 F1800
;TYPE:Skirt
;WIDTH:0.48
G1 F3000
G1 X135.649 Y100.077 E.06071
G1 X136.809 Y98.895 E.06371
G1 X138.789 Y97.405 E.09535
G1 X140.246 Y96.619 E.06371
G1 X142.031 Y95.931 E.0736
G1 X143.483 Y95.573 E.05754
G1 X145.561 Y95.335 E.0805
G1 X188.522 Y95.326 E1.65307
G1 X190.171 Y95.474 E.06371
G1 X191.79 Y95.82 E.06371
G1 X193.434 Y96.392 E.06698
G1 X194.346 Y96.813 E.03863
G1 X195.895 Y97.718 E.06905
G1 X197.244 Y98.751 E.06536
G1 X198.426 Y99.91 E.06371
G1 X199.461 Y101.203 E.06371
G1 X200.476 Y102.871 E.07516
G1 X216.152 Y132.871 E1.30245
G1 X216.705 Y134.112 E.05229
G1 X217.227 Y135.719 E.065
G1 X217.573 Y137.559 E.07205
G1 X217.683 Y139.211 E.06371
G1 X217.683 Y208.79 E2.67731
G1 X217.576 Y210.59 E.0694
G1 X217.137 Y212.913 E.09095
G1 X216.391 Y215.06 E.08747
G1 X215.508 Y216.81 E.07543
G1 X214.101 Y218.837 E.09492
G1 X212.725 Y220.319 E.07782
G1 X211.059 Y221.698 E.08323
G1 X209.173 Y222.863 E.08532
G1 X206.965 Y223.818 E.09253
G1 X204.952 Y224.364 E.08026
G1 X203.658 Y224.574 E.05047
G1 X201.873 Y224.686 E.06879
G1 X159.157 Y224.687 E1.64368
G1 X157.139 Y224.548 E.07783
G1 X154.966 Y224.106 E.08533
G1 X153.459 Y223.606 E.06107
G1 X151.601 Y222.744 E.07884
G1 X110.894 Y200.148 E1.79146
G1 X109.146 Y198.972 E.08109
G1 X107.909 Y197.932 E.06217
G1 X106.557 Y196.535 E.0748
G1 X105.559 Y195.265 E.06217
G1 X104.441 Y193.478 E.08109
G1 X103.431 Y191.272 E.09337
G1 X102.933 Y189.735 E.06217
G1 X102.611 Y188.306 E.05637
G1 X102.354 Y186.227 E.08058
G1 X102.317 Y155.157 E1.19556
G1 X102.478 Y153.096 E.07956
G1 X102.824 Y151.476 E.06371
G1 X103.396 Y149.832 E.06698
G1 X103.817 Y148.921 E.03863
G1 X104.722 Y147.371 E.06905
G1 X134.66 Y101.357 E2.11235
G1 X135.023 Y101.593 F16200
G1 F3000
G1 X135.045 Y101.56 E.00154
G1 X135.985 Y100.351 E.0589
G1 X137.109 Y99.207 E.06171
G1 X139.006 Y97.78 E.09135
G1 X140.417 Y97.017 E.06171
G1 X142.164 Y96.343 E.07206
G1 X143.579 Y95.995 E.05607
G1 X145.596 Y95.767 E.07811
G1 X188.496 Y95.758 E1.65074
M73 P0 R37
G1 X190.093 Y95.901 E.06171
G1 X191.662 Y96.234 E.06171
G1 X193.253 Y96.785 E.06477
G1 X194.164 Y97.206 E.03863
G1 X195.665 Y98.085 E.06695
G1 X196.97 Y99.086 E.06326
G1 X198.114 Y100.21 E.06171
G1 X199.114 Y101.463 E.06171
G1 X200.092 Y103.072 E.07243
G1 X215.768 Y133.072 E1.30245
G1 X216.307 Y134.283 E.05101
G1 X216.804 Y135.815 E.06198
G1 X217.141 Y137.594 E.06965
G1 X217.25 Y139.211 E.06238
G1 X217.25 Y208.79 E2.67731
G1 X217.147 Y210.531 E.0671
G1 X216.72 Y212.794 E.08862
G1 X215.996 Y214.881 E.08501
G1 X215.561 Y215.812 E.03953
G1 X214.809 Y217.122 E.05812
G1 X213.367 Y219.032 E.0921
G1 X211.858 Y220.518 E.08151
G1 X210.294 Y221.699 E.07538
G1 X208.415 Y222.758 E.08299
G1 X206.362 Y223.559 E.08482
G1 X204.112 Y224.074 E.08883
G1 X201.873 Y224.253 E.0864
G1 X159.157 Y224.253 E1.64368
G1 X157.187 Y224.118 E.07598
G1 X155.073 Y223.686 E.08301
G1 X153.624 Y223.205 E.05875
G1 X151.811 Y222.365 E.0769
G1 X111.106 Y199.77 E1.79139
G1 X109.417 Y198.633 E.07837
G1 X108.199 Y197.61 E.06121
G1 X106.889 Y196.257 E.07247
G1 X105.907 Y195.005 E.06121
G1 X104.826 Y193.279 E.07837
G1 X103.84 Y191.128 E.09105
G1 X103.349 Y189.615 E.06121
G1 X103.034 Y188.215 E.05521
G1 X102.786 Y186.192 E.07845
G1 X102.75 Y155.157 E1.19418
G1 X102.904 Y153.173 E.07656
G1 X103.237 Y151.604 E.06171
G1 X103.789 Y150.014 E.06477
G1 X104.21 Y149.103 E.03863
G1 X105.089 Y147.601 E.06695
G1 X135.002 Y101.627 E2.11052
; printing object FanHolderSide.STL id:2 copy 0
G1 E-.28 F1800
;WIPE_START
G1 F3000
G1 X135.045 Y101.56 E-.0096
G1 X135.61 Y100.833 E-.1104
;WIPE_END
EXCLUDE_OBJECT_START NAME=FanHolderSide.STL_id_2_copy_0
G1 Z.618 F16200
G1 X135.002 Y148.342 Z.618
G1 Z.218
G1 E.4 F1800
;TYPE:Brim
G1 F3000
G1 X147.209 Y148.342 E.46971
G1 X148.02 Y148.391 E.03127
G1 X148.813 Y148.535 E.03102
G1 X149.582 Y148.773 E.03097
G1 X150.467 Y149.183 E.03755
G1 X151.232 Y149.661 E.03469
G1 X151.855 Y150.171 E.03099
G1 X152.413 Y150.752 E.03102
G1 X152.898 Y151.396 E.03102
G1 X153.302 Y152.094 E.03102
G1 X153.621 Y152.838 E.03113
G1 X153.752 Y153.245 E.01648
G1 X153.943 Y154.086 E.03318
G1 X154.03 Y155.165 E.04167
G1 X154.017 Y185.633 E1.17236
G1 X153.959 Y186.348 E.02762
G1 X153.894 Y186.815 E.01814
G1 X153.753 Y187.522 E.02774
G1 X153.568 Y188.203 E.02712
G1 X153.326 Y188.896 E.02827
G1 X153.042 Y189.558 E.02771
G1 X152.712 Y190.198 E.02769
G1 X152.347 Y190.8 E.02712
G1 X151.924 Y191.4 E.02822
G1 X151.302 Y192.142 E.03727
G1 X150.797 Y192.654 E.0277
G1 X150.448 Y192.969 E.01809
G1 X149.683 Y193.568 E.03736
G1 X149.294 Y193.831 E.01809
G1 X148.675 Y194.199 E.0277
G1 X147.805 Y194.624 E.03726
G1 X147.136 Y194.886 E.02765
G1 X146.454 Y195.1 E.02749
G1 X145.757 Y195.266 E.02758
G1 X145.285 Y195.35 E.01845
G1 X144.32 Y195.452 E.03732
G1 X143.601 Y195.469 E.0277
G1 X143.13 Y195.453 E.01813
G1 X142.412 Y195.387 E.02775
G1 X141.702 Y195.272 E.02765
G1 X140.761 Y195.038 E.03731
G1 X140.314 Y194.893 E.01809
G1 X139.643 Y194.632 E.02769
G1 X138.773 Y194.208 E.03727
G1 X138.153 Y193.842 E.02769
G1 X137.763 Y193.579 E.01809
G1 X136.998 Y192.982 E.03736
G1 X136.648 Y192.668 E.01809
G1 X136.14 Y192.156 E.02775
G1 X135.672 Y191.612 E.02765
G1 X135.102 Y190.829 E.03726
G1 X134.727 Y190.215 E.02765
G1 X134.396 Y189.575 E.02775
G1 X134.204 Y189.144 E.01813
G1 X133.949 Y188.47 E.02775
G1 X133.741 Y187.781 E.0277
G1 X133.582 Y187.079 E.02769
G1 X133.473 Y186.367 E.0277
G1 X133.413 Y185.648 E.02776
G1 X133.4 Y185.157 E.01889
G1 X133.4 Y168.188 E.65295
G1 X133.352 Y168.052 E.00558
G1 X133.184 Y167.972 E.00716
G1 X130.246 Y167.972 E.11302
G1 X130.11 Y168.02 E.00558
G1 X130.03 Y168.188 E.00716
G1 X130.03 Y185.152 E.65273
G1 X129.985 Y186.103 E.03666
G1 X129.896 Y186.802 E.02709
G1 X129.754 Y187.521 E.02821
G1 X129.487 Y188.452 E.03727
G1 X129.234 Y189.125 E.02765
G1 X128.934 Y189.779 E.0277
G1 X128.589 Y190.412 E.02775
G1 X128.34 Y190.811 E.01809
G1 X127.77 Y191.597 E.03736
G1 X127.469 Y191.957 E.01808
G1 X126.986 Y192.471 E.02712
G1 X126.255 Y193.131 E.03788
G1 X125.885 Y193.421 E.01809
G1 X125.294 Y193.831 E.0277
G1 X124.454 Y194.317 E.03731
G1 X124.032 Y194.523 E.01809
G1 X123.367 Y194.802 E.02774
G1 X122.687 Y195.033 E.02765
G1 X121.746 Y195.268 E.03731
G1 X121.283 Y195.35 E.01808
G1 X120.568 Y195.435 E.0277
G1 X119.599 Y195.469 E.03731
G1 X119.13 Y195.453 E.01808
G1 X118.413 Y195.387 E.0277
G1 X117.459 Y195.22 E.03726
G1 X116.763 Y195.038 E.0277
G1 X116.315 Y194.894 E.01809
G1 X115.415 Y194.531 E.03736
G1 X114.992 Y194.325 E.01809
G1 X114.364 Y193.973 E.02769
G1 X113.561 Y193.433 E.03726
G1 X112.999 Y192.983 E.0277
G1 X112.649 Y192.669 E.01809
G1 X111.974 Y191.971 E.03736
G1 X111.671 Y191.612 E.01809
G1 X111.241 Y191.035 E.0277
G1 X110.727 Y190.214 E.03726
G1 X110.397 Y189.576 E.02765
G1 X110.111 Y188.915 E.0277
G1 X109.872 Y188.235 E.02775
G1 X109.742 Y187.783 E.01809
G1 X109.539 Y186.834 E.03736
G1 X109.473 Y186.368 E.01809
G1 X109.413 Y185.648 E.02781
G1 X109.4 Y185.157 E.01889
G1 X109.4 Y155.163 E1.15414
G1 X109.449 Y154.352 E.03127
G1 X109.593 Y153.559 E.03102
G1 X109.831 Y152.79 E.03097
G1 X110.241 Y151.904 E.03755
G1 X110.719 Y151.14 E.03469
G1 X111.229 Y150.517 E.03099
G1 X111.81 Y149.958 E.03102
G1 X112.455 Y149.474 E.03102
G1 X113.152 Y149.07 E.03102
G1 X113.896 Y148.751 E.03112
G1 X114.356 Y148.605 E.01859
G1 X115.144 Y148.428 E.03107
G1 X116.224 Y148.342 E.04168
G1 X134.962 Y148.342 E.72101
M73 P1 R37
G1 X134.962 Y148.775 F16200
G1 F3000
G1 X147.199 Y148.775 E.4709
G1 X147.975 Y148.823 E.02991
G1 X148.717 Y148.959 E.02901
G1 X149.434 Y149.182 E.02889
G1 X150.268 Y149.569 E.03537
G1 X150.971 Y150.009 E.03194
G1 X151.555 Y150.485 E.02895
G1 X152.087 Y151.04 E.02961
G1 X152.54 Y151.643 E.02901
G1 X152.91 Y152.282 E.02841
G1 X153.212 Y152.984 E.02943
G1 X153.332 Y153.355 E.01498
G1 X153.515 Y154.161 E.03181
G1 X153.597 Y155.188 E.03964
G1 X153.584 Y185.621 E1.17101
G1 X153.529 Y186.297 E.02612
G1 X153.467 Y186.739 E.01717
G1 X153.332 Y187.419 E.02665
G1 X153.153 Y188.078 E.02631
G1 X152.924 Y188.735 E.02675
G1 X152.652 Y189.369 E.02654
G1 X152.336 Y189.982 E.02653
G1 X151.982 Y190.567 E.02631
G1 X151.584 Y191.131 E.02657
G1 X150.978 Y191.854 E.03631
G1 X150.5 Y192.339 E.02618
G1 X150.172 Y192.635 E.01699
G1 X149.424 Y193.22 E.03654
G1 X149.058 Y193.467 E.01699
G1 X148.464 Y193.82 E.02659
G1 X147.626 Y194.229 E.0359
G1 X146.988 Y194.479 E.02635
G1 X146.343 Y194.68 E.02599
G1 X145.672 Y194.841 E.02654
G1 X145.228 Y194.92 E.01735
G1 X144.287 Y195.02 E.03643
G1 X143.607 Y195.036 E.02618
G1 X143.153 Y195.021 E.01746
G1 X142.471 Y194.958 E.02636
G1 X141.795 Y194.848 E.02635
G1 X140.876 Y194.62 E.03643
G1 X140.456 Y194.484 E.01699
G1 X139.822 Y194.237 E.02618
G1 X138.973 Y193.824 E.03631
G1 X138.388 Y193.477 E.02618
G1 X138.022 Y193.231 E.01699
G1 X137.273 Y192.647 E.03654
G1 X136.944 Y192.352 E.01699
G1 X136.456 Y191.858 E.02671
G1 X136.008 Y191.338 E.02641
G1 X135.465 Y190.592 E.03549
G1 X135.108 Y190.006 E.02642
G1 X134.785 Y189.383 E.027
G1 X134.603 Y188.976 E.01717
G1 X134.361 Y188.335 E.02636
G1 X134.162 Y187.675 E.02654
G1 X134.009 Y187.002 E.02653
G1 X133.903 Y186.312 E.02689
G1 X133.846 Y185.628 E.0264
G1 X133.833 Y185.15 E.01841
G1 X133.833 Y168.199 E.65223
G1 X133.805 Y168.033 E.00651
G1 X133.764 Y167.92 E.00462
G1 X133.661 Y167.752 E.00756
G1 X133.527 Y167.655 E.00638
G1 X133.383 Y167.587 E.00615
G1 X133.169 Y167.538 E.00843
G1 X130.258 Y167.538 E.11203
G1 X129.978 Y167.607 E.01109
G1 X129.811 Y167.71 E.00756
G1 X129.713 Y167.845 E.00638
G1 X129.645 Y167.989 E.00615
G1 X129.597 Y168.203 E.00843
G1 X129.597 Y185.138 E.65166
G1 X129.552 Y186.071 E.03592
G1 X129.467 Y186.737 E.02583
G1 X129.333 Y187.414 E.02656
G1 X129.074 Y188.321 E.03631
G1 X128.832 Y188.962 E.02636
G1 X128.549 Y189.581 E.02618
G1 X128.216 Y190.19 E.02671
G1 X127.983 Y190.565 E.01699
G1 X127.425 Y191.334 E.03654
G1 X127.142 Y191.672 E.01699
G1 X126.686 Y192.157 E.02562
G1 X125.973 Y192.802 E.03699
G1 X125.625 Y193.074 E.01698
G1 X125.066 Y193.462 E.02619
G1 X124.246 Y193.936 E.03642
G1 X123.85 Y194.13 E.01699
G1 X123.218 Y194.395 E.02636
G1 X122.559 Y194.618 E.02677
G1 X121.651 Y194.845 E.03601
G1 X121.216 Y194.922 E.01699
G1 X120.54 Y195.002 E.02618
G1 X119.594 Y195.036 E.03642
G1 X119.153 Y195.021 E.01699
G1 X118.476 Y194.958 E.02618
G1 X117.546 Y194.795 E.0363
G1 X116.888 Y194.623 E.02619
G1 X116.468 Y194.488 E.01699
G1 X115.587 Y194.133 E.03654
G1 X115.19 Y193.939 E.017
G1 X114.596 Y193.607 E.02618
G1 X113.813 Y193.08 E.03631
G1 X113.282 Y192.655 E.02619
G1 X112.953 Y192.36 E.01699
G1 X112.293 Y191.678 E.03654
G1 X112.009 Y191.339 E.01699
G1 X111.602 Y190.794 E.02619
G1 X111.101 Y189.994 E.03631
G1 X110.786 Y189.386 E.02635
G1 X110.516 Y188.761 E.02619
G1 X110.286 Y188.107 E.02671
G1 X110.164 Y187.682 E.01699
G1 X109.965 Y186.754 E.03654
G1 X109.904 Y186.316 E.01699
G1 X109.846 Y185.628 E.02657
G1 X109.834 Y155.172 E1.1719
G1 X109.881 Y154.396 E.02991
G1 X110.014 Y153.67 E.02841
G1 X110.234 Y152.954 E.02882
G1 X110.619 Y152.118 E.0354
G1 X111.077 Y151.387 E.03321
G1 X111.553 Y150.806 E.02892
G1 X112.098 Y150.284 E.02901
G1 X112.701 Y149.832 E.02901
G1 X113.34 Y149.462 E.02841
G1 X114.041 Y149.16 E.02938
G1 X114.475 Y149.022 E.01751
G1 X115.218 Y148.857 E.02928
G1 X116.236 Y148.776 E.0393
G1 X134.922 Y148.775 E.71901
G1 X134.922 Y149.209 F16200
G1 F3000
G1 X147.19 Y149.209 E.47208
